X: 3
T: Zheng buxia yinqian guobuliao
%%abc-version 2.0
%%abcx-abcm2ps-target-version 5.9.1 (29 Sep 2008)
%%abc-creator hum2abc beta
%%abcx-conversion-date 2013/10/02 07:52:29
%%abc-edited-by Helmut Schaffrath
%%humdrum-veritas 748495815
%%humdrum-veritas-data 707688235
%%continueall 1
%%barnumbers 0
L: 1/16
M: 2/4
K: F
g2a4a d' [I:setbarnb 1]| 
g2 g2 f2 f d | 
d2 A2 z G> G G/ c/ | 
A8 | 
g2a4a d' | 
g2 g2 f2 f d | 
d2 A2 z G> G G/ c/ | 
d8 |]  



